X:1
T:Tell Her I Am -- Jig
R:jig
B:Ryan's Mammoth Collection
N: 85 436
Z: Contributed by Ray Davies,  ray:davies99.freeserve.co.uk
M:6/8
L:1/8
K:G
ue"^Segno"|\
dcA G2B | DDD G2B | AGA cBA | BGE c2e |
dcA G2B | DDD G2B | AGA cBA |1 BGE c2:|2 BGE E2 H|]
uc|\
BGB d2d | BGB d2d | BGB d^cd | e=cA A2c |
BGB def | gfe dcB | AGA cBA |1 BGE E:|2 BGE c2e "^Segno"|]
